assets/images/ico_name.svg

<svg width="20" height="19" viewBox="0 0 20 19" fill="none" xmlns="http://www.w3.org/2000/svg">
<path d="M1.52745 18H18.4718C18.7632 18 19 17.7638 19 17.4725C19 13.7506 14.7253 12.0514 12.832 11.4818C13.9568 10.1817 14.6702 8.24321 14.6702 6.46872C14.6702 3.45306 12.5612 1 9.96777 1C7.37468 1 5.2645 3.45345 5.2645 6.46872C5.2645 8.25024 5.98418 10.1969 7.11682 11.497C5.19848 12.0823 1 13.7842 1 17.4725C1 17.7638 1.23598 18 1.52745 18ZM9.96738 2.05415C11.9791 2.05415 13.6154 4.0344 13.6154 6.46872C13.6154 8.93076 11.9318 11.9374 9.96738 11.9374C8.00254 11.9374 6.3194 8.93037 6.3194 6.46872C6.3194 4.0344 7.95526 2.05415 9.96738 2.05415ZM8.03458 12.3368C8.62141 12.7468 9.2731 12.992 9.96738 12.992C10.6683 12.992 11.3255 12.7417 11.9166 12.3247C12.8789 12.5664 17.429 13.8701 17.9037 16.9458H2.09514C2.56241 13.9185 6.97812 12.6082 8.03458 12.3368Z" fill="#023869" stroke="#023869" stroke-width="0.5"/>
</svg>

<svg width="20" height="19" fill="none" xmlns="http://www.w3.org/2000/svg"><path d="M1.527 18h16.945a.528.528 0 00.528-.527c0-3.722-4.275-5.422-6.168-5.991 1.125-1.3 1.838-3.239 1.838-5.013C14.67 3.453 12.561 1 9.968 1S5.264 3.453 5.264 6.469c0 1.781.72 3.728 1.853 5.028C5.198 12.082 1 13.784 1 17.473c0 .29.236.527.527.527zm8.44-15.946c2.012 0 3.648 1.98 3.648 4.415 0 2.462-1.683 5.468-3.648 5.468-1.964 0-3.648-3.007-3.648-5.468 0-2.435 1.636-4.415 3.648-4.415zM8.035 12.337c.586.41 1.238.655 1.932.655.701 0 1.358-.25 1.95-.667.962.241 5.512 1.545 5.987 4.62H2.095c.467-3.027 4.883-4.337 5.94-4.608z" fill="#023869" stroke="#023869" stroke-width=".5"/></svg>
